X:1
T:Tousle Your Kerchie
S:Andy Turner <magpielane:dsl.pipex.com> tradtunes 2009-6-8
M:6/8
L:1/8
R:Jig
K:Em
|B|EGE GEG|BAB e2f|gfe dgB|AGA BGE|EGE GEG|BAB e2f|gfe dcB|AGF E2:|
|:B|EGE  B2B|GEG B2B|GEG A2G|FDF AGF|EGE B2B|GEG e2f|gfe dcB|AGF E2:||
